ligands/tridentate/tp-scorpionate.svg

<svg height="256" viewBox="0 0 256 256" width="256" xmlns="http://www.w3.org/2000/svg"><path d="m0 0h256v256h-256z" fill="#fff"/><ellipse cx="123" cy="149.2" fill="#ff7f7f" fill-rule="evenodd" rx="13.6" ry="13.6" stroke="#ff7f7f"/><g fill="none" stroke="#000" stroke-width="2"><path d="m190 119.5-16.3 4.5"/><path d="m146.2 129.3-43.7 1.9"/><path d="m92.7 146.9-.1 20.2"/><path d="m82.8 180.2-33.4 11"/><path d="m80.5 173.2-28.3 9.3"/><path d="m49.4 191.2-26.5-37"/><path d="m22.9 154.2 26.6-36.7"/><path d="m32 154.2 20.3-28"/><path d="m156.6 119.1 1-18.7"/><path d="m148.7 80-20.6-10.8"/><path d="m120 54.2 6-34.9"/><path d="m127.3 55.5 5.1-29.6"/><path d="m126 19.3 44.9-6.5"/><path d="m170.9 12.8 20 40.7"/><path d="m166.6 20.9 15.4 31.1"/><path d="m165.8 143.4 11.2 16.6"/><path d="m174.8 185-8.2 14.2"/><path d="m170.7 219.9 20.5 22.9"/><path d="m176.2 215 16.9 18.9"/><path d="m191.2 242.8 41.5-18.4"/><path d="m232.7 224.4-4.7-45.2"/><path d="m224.8 219.8-3.5-34.5"/><path d="m49.5 117.5 33.4 11"/><path d="m190.9 53.5-22.6 22.2"/><path d="m228 179.2-34.6-7.3"/><path d="m102.4 168 10.8-9.9"/><path d="m119.2 79.3 3.3 60.1"/><path d="m154.7 199.2-22-34.7"/><path d="m51.1 190.6-1.7.6-1.3-1.9" stroke-miterlimit="10"/><path d="m24.2 156.1-1.3-1.9 1.3-1.8" stroke-miterlimit="10"/><path d="m48.2 119.3 1.3-1.8 1.7.5" stroke-miterlimit="10"/><path d="m125.7 21.1.3-1.8 2.3-.3" stroke-miterlimit="10"/><path d="m168.6 13.1 2.3-.3 1 2" stroke-miterlimit="10"/><path d="m189.9 51.5 1 2-1.1 1.1" stroke-miterlimit="10"/><path d="m190.2 241.7 1 1.1 2.1-.9" stroke-miterlimit="10"/><path d="m230.6 225.3 2.1-.9-.2-2.3" stroke-miterlimit="10"/><path d="m228.3 181.5-.3-2.3-1.7-.3" stroke-miterlimit="10"/></g><text x="114.9" y="162.8"/><text font-family="sans-serif" font-size="27" x="191.6" y="130.4">H</text><text font-family="sans-serif" font-size="27" x="147.9" y="142.5">B</text><text font-family="sans-serif" font-size="17" x="166.7" y="131.6">-</text><text font-family="sans-serif" font-size="27" x="84.5" y="145.3">N</text><text font-family="sans-serif" font-size="27" x="84.4" y="190.5">N</text><text font-family="sans-serif" font-size="27" x="150.3" y="98.8">N</text><text font-family="sans-serif" font-size="27" x="110.2" y="77.6">N</text><text font-family="sans-serif" font-size="27" x="175.5" y="183.4">N</text><text font-family="sans-serif" font-size="27" x="152.8" y="222.6">N</text></svg>

<?xml version='1.0' encoding='iso-8859-1'?>
<svg version='1.1' baseProfile='full'
              xmlns='http://www.w3.org/2000/svg'
                      xmlns:rdkit='http://www.rdkit.org/xml'
                      xmlns:xlink='http://www.w3.org/1999/xlink'
                  xml:space='preserve'
width='256px' height='256px' viewBox='0 0 256 256'>
<!-- END OF HEADER -->
<rect style='opacity:1.0;fill:#FFFFFF;stroke:none' width='256.0' height='256.0' x='0.0' y='0.0'> </rect>
<ellipse cx='123.0' cy='149.2' rx='13.6' ry='13.6' class='atom-0'  style='fill:#FF7F7F;fill-rule:evenodd;stroke:#FF7F7F;stroke-width:1.0px;stroke-linecap:butt;stroke-linejoin:miter;stroke-opacity:1' />
<path class='bond-0 atom-1 atom-2' d='M 190.0,119.5 L 173.7,124.0' style='fill:none;fill-rule:evenodd;stroke:#000000;stroke-width:2.0px;stroke-linecap:butt;stroke-linejoin:miter;stroke-opacity:1' />
<path class='bond-1 atom-2 atom-3' d='M 146.2,129.3 L 102.5,131.2' style='fill:none;fill-rule:evenodd;stroke:#000000;stroke-width:2.0px;stroke-linecap:butt;stroke-linejoin:miter;stroke-opacity:1' />
<path class='bond-2 atom-3 atom-4' d='M 92.7,146.9 L 92.6,167.1' style='fill:none;fill-rule:evenodd;stroke:#000000;stroke-width:2.0px;stroke-linecap:butt;stroke-linejoin:miter;stroke-opacity:1' />
<path class='bond-3 atom-4 atom-5' d='M 82.8,180.2 L 49.4,191.2' style='fill:none;fill-rule:evenodd;stroke:#000000;stroke-width:2.0px;stroke-linecap:butt;stroke-linejoin:miter;stroke-opacity:1' />
<path class='bond-3 atom-4 atom-5' d='M 80.5,173.2 L 52.2,182.5' style='fill:none;fill-rule:evenodd;stroke:#000000;stroke-width:2.0px;stroke-linecap:butt;stroke-linejoin:miter;stroke-opacity:1' />
<path class='bond-4 atom-5 atom-6' d='M 49.4,191.2 L 22.9,154.2' style='fill:none;fill-rule:evenodd;stroke:#000000;stroke-width:2.0px;stroke-linecap:butt;stroke-linejoin:miter;stroke-opacity:1' />
<path class='bond-5 atom-6 atom-7' d='M 22.9,154.2 L 49.5,117.5' style='fill:none;fill-rule:evenodd;stroke:#000000;stroke-width:2.0px;stroke-linecap:butt;stroke-linejoin:miter;stroke-opacity:1' />
<path class='bond-5 atom-6 atom-7' d='M 32.0,154.2 L 52.3,126.2' style='fill:none;fill-rule:evenodd;stroke:#000000;stroke-width:2.0px;stroke-linecap:butt;stroke-linejoin:miter;stroke-opacity:1' />
<path class='bond-6 atom-2 atom-8' d='M 156.6,119.1 L 157.6,100.4' style='fill:none;fill-rule:evenodd;stroke:#000000;stroke-width:2.0px;stroke-linecap:butt;stroke-linejoin:miter;stroke-opacity:1' />
<path class='bond-7 atom-8 atom-9' d='M 148.7,80.0 L 128.1,69.2' style='fill:none;fill-rule:evenodd;stroke:#000000;stroke-width:2.0px;stroke-linecap:butt;stroke-linejoin:miter;stroke-opacity:1' />
<path class='bond-8 atom-9 atom-10' d='M 120.0,54.2 L 126.0,19.3' style='fill:none;fill-rule:evenodd;stroke:#000000;stroke-width:2.0px;stroke-linecap:butt;stroke-linejoin:miter;stroke-opacity:1' />
<path class='bond-8 atom-9 atom-10' d='M 127.3,55.5 L 132.4,25.9' style='fill:none;fill-rule:evenodd;stroke:#000000;stroke-width:2.0px;stroke-linecap:butt;stroke-linejoin:miter;stroke-opacity:1' />
<path class='bond-9 atom-10 atom-11' d='M 126.0,19.3 L 170.9,12.8' style='fill:none;fill-rule:evenodd;stroke:#000000;stroke-width:2.0px;stroke-linecap:butt;stroke-linejoin:miter;stroke-opacity:1' />
<path class='bond-10 atom-11 atom-12' d='M 170.9,12.8 L 190.9,53.5' style='fill:none;fill-rule:evenodd;stroke:#000000;stroke-width:2.0px;stroke-linecap:butt;stroke-linejoin:miter;stroke-opacity:1' />
<path class='bond-10 atom-11 atom-12' d='M 166.6,20.9 L 182.0,52.0' style='fill:none;fill-rule:evenodd;stroke:#000000;stroke-width:2.0px;stroke-linecap:butt;stroke-linejoin:miter;stroke-opacity:1' />
<path class='bond-11 atom-2 atom-13' d='M 165.8,143.4 L 177.0,160.0' style='fill:none;fill-rule:evenodd;stroke:#000000;stroke-width:2.0px;stroke-linecap:butt;stroke-linejoin:miter;stroke-opacity:1' />
<path class='bond-12 atom-13 atom-14' d='M 174.8,185.0 L 166.6,199.2' style='fill:none;fill-rule:evenodd;stroke:#000000;stroke-width:2.0px;stroke-linecap:butt;stroke-linejoin:miter;stroke-opacity:1' />
<path class='bond-13 atom-14 atom-15' d='M 170.7,219.9 L 191.2,242.8' style='fill:none;fill-rule:evenodd;stroke:#000000;stroke-width:2.0px;stroke-linecap:butt;stroke-linejoin:miter;stroke-opacity:1' />
<path class='bond-13 atom-14 atom-15' d='M 176.2,215.0 L 193.1,233.9' style='fill:none;fill-rule:evenodd;stroke:#000000;stroke-width:2.0px;stroke-linecap:butt;stroke-linejoin:miter;stroke-opacity:1' />
<path class='bond-14 atom-15 atom-16' d='M 191.2,242.8 L 232.7,224.4' style='fill:none;fill-rule:evenodd;stroke:#000000;stroke-width:2.0px;stroke-linecap:butt;stroke-linejoin:miter;stroke-opacity:1' />
<path class='bond-15 atom-16 atom-17' d='M 232.7,224.4 L 228.0,179.2' style='fill:none;fill-rule:evenodd;stroke:#000000;stroke-width:2.0px;stroke-linecap:butt;stroke-linejoin:miter;stroke-opacity:1' />
<path class='bond-15 atom-16 atom-17' d='M 224.8,219.8 L 221.3,185.3' style='fill:none;fill-rule:evenodd;stroke:#000000;stroke-width:2.0px;stroke-linecap:butt;stroke-linejoin:miter;stroke-opacity:1' />
<path class='bond-16 atom-7 atom-3' d='M 49.5,117.5 L 82.9,128.5' style='fill:none;fill-rule:evenodd;stroke:#000000;stroke-width:2.0px;stroke-linecap:butt;stroke-linejoin:miter;stroke-opacity:1' />
<path class='bond-17 atom-12 atom-8' d='M 190.9,53.5 L 168.3,75.7' style='fill:none;fill-rule:evenodd;stroke:#000000;stroke-width:2.0px;stroke-linecap:butt;stroke-linejoin:miter;stroke-opacity:1' />
<path class='bond-18 atom-17 atom-13' d='M 228.0,179.2 L 193.4,171.9' style='fill:none;fill-rule:evenodd;stroke:#000000;stroke-width:2.0px;stroke-linecap:butt;stroke-linejoin:miter;stroke-opacity:1' />
<path class='bond-19 atom-4 atom-0' d='M 102.4,168.0 L 113.2,158.1' style='fill:none;fill-rule:evenodd;stroke:#000000;stroke-width:2.0px;stroke-linecap:butt;stroke-linejoin:miter;stroke-opacity:1' />
<path class='bond-20 atom-9 atom-0' d='M 119.2,79.3 L 122.5,139.4' style='fill:none;fill-rule:evenodd;stroke:#000000;stroke-width:2.0px;stroke-linecap:butt;stroke-linejoin:miter;stroke-opacity:1' />
<path class='bond-21 atom-14 atom-0' d='M 154.7,199.2 L 132.7,164.5' style='fill:none;fill-rule:evenodd;stroke:#000000;stroke-width:2.0px;stroke-linecap:butt;stroke-linejoin:miter;stroke-opacity:1' />
<path d='M 51.1,190.6 L 49.4,191.2 L 48.1,189.3' style='fill:none;stroke:#000000;stroke-width:2.0px;stroke-linecap:butt;stroke-linejoin:miter;stroke-miterlimit:10;stroke-opacity:1;' />
<path d='M 24.2,156.1 L 22.9,154.2 L 24.2,152.4' style='fill:none;stroke:#000000;stroke-width:2.0px;stroke-linecap:butt;stroke-linejoin:miter;stroke-miterlimit:10;stroke-opacity:1;' />
<path d='M 48.2,119.3 L 49.5,117.5 L 51.2,118.0' style='fill:none;stroke:#000000;stroke-width:2.0px;stroke-linecap:butt;stroke-linejoin:miter;stroke-miterlimit:10;stroke-opacity:1;' />
<path d='M 125.7,21.1 L 126.0,19.3 L 128.3,19.0' style='fill:none;stroke:#000000;stroke-width:2.0px;stroke-linecap:butt;stroke-linejoin:miter;stroke-miterlimit:10;stroke-opacity:1;' />
<path d='M 168.6,13.1 L 170.9,12.8 L 171.9,14.8' style='fill:none;stroke:#000000;stroke-width:2.0px;stroke-linecap:butt;stroke-linejoin:miter;stroke-miterlimit:10;stroke-opacity:1;' />
<path d='M 189.9,51.5 L 190.9,53.5 L 189.8,54.6' style='fill:none;stroke:#000000;stroke-width:2.0px;stroke-linecap:butt;stroke-linejoin:miter;stroke-miterlimit:10;stroke-opacity:1;' />
<path d='M 190.2,241.7 L 191.2,242.8 L 193.3,241.9' style='fill:none;stroke:#000000;stroke-width:2.0px;stroke-linecap:butt;stroke-linejoin:miter;stroke-miterlimit:10;stroke-opacity:1;' />
<path d='M 230.6,225.3 L 232.7,224.4 L 232.5,222.1' style='fill:none;stroke:#000000;stroke-width:2.0px;stroke-linecap:butt;stroke-linejoin:miter;stroke-miterlimit:10;stroke-opacity:1;' />
<path d='M 228.3,181.5 L 228.0,179.2 L 226.3,178.9' style='fill:none;stroke:#000000;stroke-width:2.0px;stroke-linecap:butt;stroke-linejoin:miter;stroke-miterlimit:10;stroke-opacity:1;' />
<text x='114.9' y='162.8' class='atom-0' style='font-size:27px;font-style:normal;font-weight:normal;fill-opacity:1;stroke:none;font-family:sans-serif;text-anchor:start;fill:#000000' ></text>
<text x='191.6' y='130.4' class='atom-1' style='font-size:27px;font-style:normal;font-weight:normal;fill-opacity:1;stroke:none;font-family:sans-serif;text-anchor:start;fill:#000000' >H</text>
<text x='147.9' y='142.5' class='atom-2' style='font-size:27px;font-style:normal;font-weight:normal;fill-opacity:1;stroke:none;font-family:sans-serif;text-anchor:start;fill:#000000' >B</text>
<text x='166.7' y='131.6' class='atom-2' style='font-size:17px;font-style:normal;font-weight:normal;fill-opacity:1;stroke:none;font-family:sans-serif;text-anchor:start;fill:#000000' >-</text>
<text x='84.5' y='145.3' class='atom-3' style='font-size:27px;font-style:normal;font-weight:normal;fill-opacity:1;stroke:none;font-family:sans-serif;text-anchor:start;fill:#000000' >N</text>
<text x='84.4' y='190.5' class='atom-4' style='font-size:27px;font-style:normal;font-weight:normal;fill-opacity:1;stroke:none;font-family:sans-serif;text-anchor:start;fill:#000000' >N</text>
<text x='150.3' y='98.8' class='atom-8' style='font-size:27px;font-style:normal;font-weight:normal;fill-opacity:1;stroke:none;font-family:sans-serif;text-anchor:start;fill:#000000' >N</text>
<text x='110.2' y='77.6' class='atom-9' style='font-size:27px;font-style:normal;font-weight:normal;fill-opacity:1;stroke:none;font-family:sans-serif;text-anchor:start;fill:#000000' >N</text>
<text x='175.5' y='183.4' class='atom-13' style='font-size:27px;font-style:normal;font-weight:normal;fill-opacity:1;stroke:none;font-family:sans-serif;text-anchor:start;fill:#000000' >N</text>
<text x='152.8' y='222.6' class='atom-14' style='font-size:27px;font-style:normal;font-weight:normal;fill-opacity:1;stroke:none;font-family:sans-serif;text-anchor:start;fill:#000000' >N</text>
</svg>
